openmetadata-ui/src/main/resources/ui/src/assets/svg/calendar.svg

<svg width="16" height="16" viewBox="0 0 16 16" fill="none" xmlns="http://www.w3.org/2000/svg">
<g clip-path="url(#clip0_14437_23247)">
<path d="M13.9375 1.25H12.5V0.5C12.5 0.223875 12.2762 0 12 0C11.7238 0 11.5 0.223875 11.5 0.5V1.25H4.5V0.5C4.5 0.223875 4.27616 0 4 0C3.72384 0 3.5 0.223875 3.5 0.5V1.25H2.0625C0.925219 1.25 0 2.17522 0 3.3125V13.9375C0 15.0748 0.925219 16 2.0625 16H13.9375C15.0748 16 16 15.0748 16 13.9375V3.3125C16 2.17522 15.0748 1.25 13.9375 1.25ZM2.0625 2.25H3.5V2.75C3.5 3.02612 3.72384 3.25 4 3.25C4.27616 3.25 4.5 3.02612 4.5 2.75V2.25H11.5V2.75C11.5 3.02612 11.7238 3.25 12 3.25C12.2762 3.25 12.5 3.02612 12.5 2.75V2.25H13.9375C14.5234 2.25 15 2.72662 15 3.3125V4.5H1V3.3125C1 2.72662 1.47662 2.25 2.0625 2.25ZM13.9375 15H2.0625C1.47662 15 1 14.5234 1 13.9375V5.5H15V13.9375C15 14.5234 14.5234 15 13.9375 15Z" fill="#7147E8"/>
<path d="M6.37528 9C6.72031 9 7 8.77615 7 8.5C7 8.22385 6.72028 8 6.37528 8H3.69601C3.35098 8 3.07129 8.22385 3.07129 8.5C3.07129 8.77615 3.35098 9 3.69601 9H6.37528Z" fill="#7147E8"/>
<path d="M12.3533 9C12.6984 9 12.9781 8.77615 12.9781 8.5C12.9781 8.22385 12.6983 8 12.3533 8H9.62472C9.27969 8 9 8.22385 9 8.5C9 8.77615 9.27969 9 9.62472 9H12.3533Z" fill="#7147E8"/>
<path d="M6.37528 12C6.72031 12 7 11.7761 7 11.5C7 11.2239 6.72028 11 6.37528 11H3.69601C3.35098 11 3.07129 11.2239 3.07129 11.5C3.07129 11.7761 3.35098 12 3.69601 12H6.37528Z" fill="#7147E8"/>
<path d="M12.3533 12C12.6984 12 12.9781 11.7761 12.9781 11.5C12.9781 11.2239 12.6983 11 12.3533 11H9.62472C9.27969 11 9 11.2239 9 11.5C9 11.7761 9.27969 12 9.62472 12H12.3533Z" fill="#7147E8"/>
</g>
<defs>
<clipPath id="clip0_14437_23247">
<rect width="16" height="16" fill="white"/>
</clipPath>
</defs>
</svg>

<svg xmlns="http://www.w3.org/2000/svg" width="16" height="16" fill="none"><g fill="#7147E8" clip-path="url(#a)"><path d="M13.938 1.25H12.5V.5a.5.5 0 1 0-1 0v.75h-7V.5a.5.5 0 1 0-1 0v.75H2.062A2.065 2.065 0 0 0 0 3.313v10.624C0 15.075.925 16 2.063 16h11.874A2.065 2.065 0 0 0 16 13.937V3.313a2.065 2.065 0 0 0-2.063-2.063Zm-11.876 1H3.5v.5a.5.5 0 0 0 1 0v-.5h7v.5a.5.5 0 1 0 1 0v-.5h1.438c.585 0 1.062.477 1.062 1.063V4.5H1V3.312c0-.585.477-1.062 1.063-1.062ZM13.938 15H2.062A1.064 1.064 0 0 1 1 13.937V5.5h14v8.438c0 .585-.477 1.062-1.063 1.062Z"/><path d="M6.375 9C6.72 9 7 8.776 7 8.5S6.72 8 6.375 8H3.696c-.345 0-.625.224-.625.5s.28.5.625.5h2.68ZM12.353 9c.345 0 .625-.224.625-.5s-.28-.5-.625-.5H9.625C9.28 8 9 8.224 9 8.5s.28.5.625.5h2.728ZM6.375 12c.345 0 .625-.224.625-.5s-.28-.5-.625-.5H3.696c-.345 0-.625.224-.625.5s.28.5.625.5h2.68ZM12.353 12c.345 0 .625-.224.625-.5s-.28-.5-.625-.5H9.625c-.345 0-.625.224-.625.5s.28.5.625.5h2.728Z"/></g><defs><clipPath id="a"><path fill="#fff" d="M0 0h16v16H0z"/></clipPath></defs></svg>
